X:91
T:Foxhunter Reel 
B:CRE2.205 (Fiagai an Mhada Rua)
F:file ID: cre.2/091foxh
M:C
R:reel
Q:180
K:A
cd|eAcA eA (3cBA|eAcA BFFE|eA (3cBA eAcA|BdcA BFFE|
"5"eA (3cBA eAcA|eAcA BFFE|eA (3cBA eAcA|edcA BFFE||
"9"c2 (3ccc cBcA|A2cA BFFE|c2 (3ccc cBcA|BdcA BFFE|
"13"c2 (3ccc cBcA|A2cA BFFE|c2 (3ccc cBcA|BdcA BFFE||
"17"afec A2ce|aece fBBA|afec A2cA|Bcde fBBA|
"21"afec A2ce|aece fBBA|afec ABcA|Bcde fBBA||
"25"eaa2 aaaf|eaag fffg|eaag aaae|faec BABc|
"29"eaag aaaf|eaag fffg|eaa2 eaae|faec BBBc||
"33"A2 (3cBA eacB|Acc2 BABc|A2 (3cBA eAce|faec BcBc|
"37"A2 (3cBA eacB|Acc2 BABc|A2 (3cBA eAce|faec BBBc||

%%%

